img/footer/footer-right.svg

<svg width="234" height="330" viewBox="0 0 234 330" fill="none" xmlns="http://www.w3.org/2000/svg">
<path d="M62.2241 -62.8184C40.7652 -45.2486 24.2466 -22.1051 13.6384 3.43162C2.818 29.453 -2.03148 58.3522 0.817589 86.4637C2.30274 101.065 6.0914 115.848 14.3961 128.116C22.7615 140.475 35.2186 149.563 48.2819 156.5C61.5876 163.589 76.3179 168.86 91.3816 170.405C105.112 171.828 119.812 169.799 131.208 161.529C148.848 148.715 155.122 117.756 135.118 104.064C129.571 100.277 122.964 98.399 116.356 97.5811C109.203 96.7026 101.717 96.945 94.7156 98.7322C81.2583 102.155 71.4381 111.94 65.6794 124.299C53.6163 150.109 57.0715 181.795 68.195 207.271C79.7731 233.807 100.717 255.133 125.813 269.28C149.818 282.851 177.339 290.121 204.95 289.97C231.622 289.818 258.507 282.639 280.693 267.614C286.058 263.979 291.15 259.859 295.848 255.406C296.545 254.739 295.484 253.649 294.787 254.345C275.813 272.37 251.172 283.214 225.379 286.971C199.373 290.757 172.55 287.425 148.06 278.065C122.267 268.219 98.6255 251.649 82.41 229.112C65.8309 206.12 57.1018 176.887 60.5874 148.564C62.1938 135.477 66.5583 121.997 75.4995 112.031C85.35 101.065 99.8075 97.672 114.083 98.8534C126.904 99.9137 140.179 105.639 144.544 118.695C148.09 129.297 145.423 141.445 139.422 150.623C123.509 175.039 89.1084 171.253 65.4975 162.529C51.4037 157.318 37.5524 149.775 26.4289 139.567C15.5479 129.57 8.63737 116.756 5.1215 102.489C1.72687 88.7962 1.09037 74.4072 1.96934 60.3818C2.818 46.8107 5.27305 33.3607 9.24356 20.3652C17.0633 -5.26237 30.6722 -29.2541 49.2214 -48.6414C53.6769 -53.3065 58.4051 -57.6686 63.4062 -61.7581C64.0426 -62.364 62.9818 -63.4242 62.2241 -62.8184Z" fill="white"/>
<g clip-path="url(#clip0_4030_140)">
<path d="M111.577 292.198C108.308 297.291 105.635 302.702 103.497 308.338C103.197 309.182 104.546 309.491 104.846 308.647C106.918 303.118 109.588 297.806 112.791 292.82C113.29 292.082 112.061 291.436 111.577 292.198Z" fill="white"/>
<path d="M127.578 293.585C129.971 299.648 131.843 305.937 133.184 312.327C133.388 313.185 134.722 312.78 134.542 311.907C133.201 305.517 131.305 299.243 128.936 293.165C128.583 292.334 127.249 292.739 127.578 293.585Z" fill="white"/>
<path d="M99.5806 280.856C93.625 283.125 87.6932 285.378 81.7376 287.647C80.9114 287.965 81.2861 289.308 82.1361 288.975C88.0917 286.706 94.0236 284.453 99.9792 282.184C100.82 281.89 100.445 280.547 99.5806 280.856Z" fill="white"/>
</g>
<defs>
<clipPath id="clip0_4030_140">
<rect x="139.172" y="309.579" width="38" height="49" rx="2" transform="rotate(148.054 139.172 309.579)" fill="white"/>
</clipPath>
</defs>
</svg>

<svg width="234" height="330" fill="none" xmlns="http://www.w3.org/2000/svg"><path d="M62.224-62.818c-21.459 17.57-37.977 40.713-48.586 66.25C2.818 29.453-2.032 58.352.818 86.464c1.485 14.601 5.273 29.384 13.578 41.652 8.366 12.359 20.823 21.447 33.886 28.384 13.306 7.089 28.036 12.36 43.1 13.905 13.73 1.423 28.43-.606 39.826-8.876 17.64-12.814 23.914-43.773 3.91-57.465-5.547-3.787-12.154-5.665-18.762-6.483-7.153-.878-14.639-.636-21.64 1.151-13.458 3.423-23.278 13.208-29.037 25.567-12.063 25.81-8.608 57.496 2.516 82.972 11.578 26.536 32.522 47.862 57.618 62.009 24.005 13.571 51.526 20.841 79.137 20.69 26.672-.152 53.557-7.331 75.743-22.356a119.802 119.802 0 0015.155-12.208c.697-.667-.364-1.757-1.061-1.061-18.974 18.025-43.615 28.869-69.408 32.626-26.006 3.786-52.829.454-77.319-8.906-25.793-9.846-49.434-26.416-65.65-48.953-16.58-22.992-25.308-52.225-21.823-80.548 1.607-13.087 5.971-26.567 14.912-36.533 9.851-10.966 24.309-14.359 38.584-13.178 12.821 1.06 26.096 6.786 30.461 19.842 3.546 10.602.879 22.75-5.122 31.928-15.913 24.416-50.314 20.63-73.924 11.906-14.094-5.211-27.946-12.754-39.07-22.962-10.88-9.997-17.79-22.811-21.306-37.078C1.727 88.796 1.09 74.407 1.969 60.382a174.298 174.298 0 017.275-40.017c7.82-25.627 21.428-49.62 39.977-69.006a157.039 157.039 0 0114.185-13.117c.637-.606-.424-1.666-1.182-1.06z" fill="#fff"/><g clip-path="url(#clip0_4030_140)" fill="#fff"><path d="M111.577 292.198c-3.269 5.093-5.942 10.504-8.08 16.14-.3.844 1.049 1.153 1.349.309a83.573 83.573 0 017.945-15.827c.499-.738-.73-1.384-1.214-.622zm16.001 1.387a116.006 116.006 0 015.606 18.742c.204.858 1.538.453 1.358-.42-1.341-6.39-3.237-12.664-5.606-18.742-.353-.831-1.687-.426-1.358.42zM99.58 280.856c-5.955 2.269-11.887 4.522-17.842 6.791-.827.318-.452 1.661.398 1.328 5.956-2.269 11.888-4.522 17.843-6.791.841-.294.466-1.637-.398-1.328z"/></g><defs><clipPath id="clip0_4030_140"><rect x="139.172" y="309.579" width="38" height="49" rx="2" transform="rotate(148.054 139.172 309.579)" fill="#fff"/></clipPath></defs></svg>
